svgs/moveinsync.svg

<svg width="192" height="192" viewBox="0 0 192 192" fill="none" xmlns="http://www.w3.org/2000/svg">
<path d="M146.27 23L170 47.1101L135.654 70.5505L138.152 59.1651H92.5654L94.0633 50.7798L61.3418 70.5505L85.4473 91.3303L86.9451 83.2752H140.704C148.373 83.2752 154.074 90.3693 152.423 97.858L141.476 147.528C140.264 153.028 135.39 156.945 129.758 156.945H48.8523L46.3544 169L22 144.22L56.9705 120.11L54.4726 132.165H100.059L98 141L131.5 124L107.553 99.3303L105.055 108.055H52.5445C44.8761 108.055 39.1753 100.961 40.8257 93.4723L51.7726 43.8026C52.9848 38.3024 57.8591 34.3853 63.4914 34.3853H143.772L146.27 23Z" stroke="black" stroke-width="12" stroke-linejoin="round"/>
</svg>

<svg xmlns="http://www.w3.org/2000/svg" width="192" height="192" fill="none" viewBox="0 0 192 192"><path stroke="#000" stroke-linejoin="round" stroke-width="12" d="M146.27 23 170 47.11l-34.346 23.44 2.498-11.385H92.565l1.498-8.385-32.721 19.77 24.105 20.78 1.498-8.055h53.759c7.669 0 13.37 7.094 11.719 14.583l-10.947 49.67a12 12 0 0 1-11.718 9.417H48.852L46.354 169 22 144.22l34.97-24.11-2.497 12.055h45.586L98 141l33.5-17-23.947-24.67-2.498 8.725h-52.51c-7.669 0-13.37-7.094-11.72-14.583l10.948-49.67a12 12 0 0 1 11.718-9.417h80.281L146.27 23Z"/></svg>
